X: 1
T: Geordie MacLeish
M: 4/4
L: 1/8
R: reel
K: Dmaj
|: d2 AF D2 AF | d2 cd Bgfe | d2 AF D2 AF | EFGA BABc |
d2 AF D2 AF | d2 cd Bgfe | d2 AF D2 AF | EFGA BABc :|
|:dF F2 AD D2 | dF F2 dgfe | dF F2 ADAF | EFGA BABc |
dF F2 AD D2 | dF F2 dgfe | dcBA BAGF | EFGA BABc :|
